app/dist/common/images/northview-acquisition.svg

<svg height="18" viewBox="0 0 18 18" width="18" xmlns="http://www.w3.org/2000/svg"><path d="m0 0h18v18h-18z" fill="#f0f3fa"/><path d="m15 9a6 6 0 1 1 -12 0 6 6 0 0 1 12 0z" fill="#58819e"/><path d="m14 9a5 5 0 1 1 -10 0 5 5 0 0 1 10 0z" fill="#e4edf4"/><path d="m9 13.67a4.67 4.67 0 1 0 0-9.34 4.67 4.67 0 0 0 0 9.34zm0 .33a5 5 0 1 0 0-10 5 5 0 0 0 0 10z" fill="#05b1f0" fill-rule="evenodd"/><path d="m5.67 5.67h6.66v6.66h-6.66z" fill="#aaccde"/><path d="m6.33 6.33h5.34v5.34h-5.34z" fill="#85b6cf"/><path d="m7 7h4v4h-4z" fill="#a4c9dc"/><path d="m7.67 7.67h2.66v2.66h-2.66z" fill="#c9dfea"/><path d="m8.33 8.33h1.34v1.34h-1.34z" fill="#f6f9fb"/></svg>

<!-- by TradingView --><svg width="18" height="18" viewBox="0 0 18 18" xmlns="http://www.w3.org/2000/svg"><path fill="#F0F3FA" d="M0 0h18v18H0z"/><path d="M15 9A6 6 0 1 1 3 9a6 6 0 0 1 12 0Z" fill="#58819E"/><path d="M14 9A5 5 0 1 1 4 9a5 5 0 0 1 10 0Z" fill="#E4EDF4"/><path fill-rule="evenodd" d="M9 13.67a4.67 4.67 0 1 0 0-9.34 4.67 4.67 0 0 0 0 9.34ZM9 14A5 5 0 1 0 9 4a5 5 0 0 0 0 10Z" fill="#05B1F0"/><path d="M5.67 5.67h6.66v6.66H5.67V5.67Z" fill="#AACCDE"/><path d="M6.33 6.33h5.34v5.34H6.33V6.33Z" fill="#85B6CF"/><path d="M7 7h4v4H7V7Z" fill="#A4C9DC"/><path d="M7.67 7.67h2.66v2.66H7.67V7.67Z" fill="#C9DFEA"/><path d="M8.33 8.33h1.34v1.34H8.33V8.33Z" fill="#F6F9FB"/></svg>
